X: 1
T: Bangum, The
M: 4/4
L: 1/8
R: reel
K: Gmaj
D|: G>BcA Bdde | d>edB dBAB | G>BcA Bdde |1 dgec d2D2 :|2 dgec d2(3def ||
|: g>fga g=fde | d>edB dBAB | G>edB d2d2 |1 GFGB c2(3def :|2 GFGB c2c2 ||
